X: 21073
T: Just Another Fling
R: strathspey
M: 4/4
K: Eminor
e>dc>B c>A E2|B<Ge>G G2 F2|e<dc>B c>Ae>c|B<GF>G E2:|
g<eB>e g<e B2|c>gB>g f2 (3c'ba|g<eB>e g<e B2|c<gB>g e2 (3c'ba|
g<eB>e g<eB>g|c<gB>g f2 (3B^c^d|e<gc>g B<e (3FGA|(3BcB (3AGF E2||

